X: 1
T: the Mist-Covered Mountain    [Am]
R: waltz, Jig
Z: John Chambers <jc:trillian.mit.edu>
D: De Danaan ________
M: 3/4
L: 1/8
K: ADor
G \
| "Am"E>AA ABd | e2A AGE | "G"G>AG GAB | dBA GED \
| "Am"E>AA ABd | e2A "G"B^cd | "C"e>fg "G"dBG | "Em"BAG "Am"A3 :|
a \
| "Am"a>ge a2b | age edB | A>GE "G"G2A | BAB deg \
| "Am"a>ge a2b | age edB | A>GE "G"G2A | BAG "Am"A2 |]
a \
| "Am"a>ge a2b | age edB | A>GE "G"G2A | BAB GED \
| "Am"E>DE G2A | "G"BAG B^cd | "C"e>fg "G"dBG | "Em"BAG "Am"A3 |]
%%text Played as both waltz and jig.
